src/img/bus.svg

<svg fill="none" height="24" viewBox="0 0 24 24" width="24" xmlns="http://www.w3.org/2000/svg"><path clip-rule="evenodd" d="m20.125 6.375h.9375c.5176 0 .9375.41953.9375.9375v3.125c0 .5176-.4199.9375-.9375.9375h-.9375v.8164c.3668.218.625.6008.625 1.0586v5c0 .6902-.5598 1.25-1.25 1.25v1.25c0 .6902-.5598 1.25-1.25 1.25h-1.25c-.6902 0-1.25-.5598-1.25-1.25v-1.25h-7.5v1.25c0 .6902-.55977 1.25-1.25 1.25h-1.25c-.69023 0-1.25-.5598-1.25-1.25v-1.25c-.69023 0-1.25-.5598-1.25-1.25v-5c0-.4578.2582-.841.625-1.0586v-.8164h-.9375c-.51758 0-.9375-.4199-.9375-.9375v-3.125c0-.51797.41992-.9375.9375-.9375h.9375v-1.25c0-1.75 3.59805-3.125 8.125-3.125 4.527 0 8.125 1.375 8.125 3.125zm-11.5625-1.875c-.17266 0-.3125.13984-.3125.3125v.625c0 .17266.13984.3125.3125.3125h6.875c.1727 0 .3125-.13984.3125-.3125v-.625c0-.17266-.1398-.3125-.3125-.3125zm-2.1875 12.5c-.69023 0-1.25-.5598-1.25-1.25s.55977-1.25 1.25-1.25 1.25.5598 1.25 1.25-.55977 1.25-1.25 1.25zm1.25-5h3.75v-5h-3.75c-.69023 0-1.25.55977-1.25 1.25v2.5c0 .6902.55977 1.25 1.25 1.25zm5 0v-5h3.75c.6902 0 1.25.55977 1.25 1.25v2.5c0 .6902-.5598 1.25-1.25 1.25zm3.75 3.75c0 .6902.5598 1.25 1.25 1.25s1.25-.5598 1.25-1.25-.5598-1.25-1.25-1.25-1.25.5598-1.25 1.25z" fill="#6f6f6f" fill-rule="evenodd"/></svg>

<svg width="24" height="24" viewBox="0 0 24 24" fill="none" xmlns="http://www.w3.org/2000/svg">
<path fill-rule="evenodd" clip-rule="evenodd" d="M20.125 6.375H21.0625C21.5801 6.375 22 6.79453 22 7.3125V10.4375C22 10.9551 21.5801 11.375 21.0625 11.375H20.125V12.1914C20.4918 12.4094 20.75 12.7922 20.75 13.25V18.25C20.75 18.9402 20.1902 19.5 19.5 19.5V20.75C19.5 21.4402 18.9402 22 18.25 22H17C16.3098 22 15.75 21.4402 15.75 20.75V19.5H8.25V20.75C8.25 21.4402 7.69023 22 7 22H5.75C5.05977 22 4.5 21.4402 4.5 20.75V19.5C3.80977 19.5 3.25 18.9402 3.25 18.25V13.25C3.25 12.7922 3.5082 12.409 3.875 12.1914V11.375H2.9375C2.41992 11.375 2 10.9551 2 10.4375V7.3125C2 6.79453 2.41992 6.375 2.9375 6.375H3.875V5.125C3.875 3.375 7.47305 2 12 2C16.527 2 20.125 3.375 20.125 5.125V6.375ZM8.5625 4.5C8.38984 4.5 8.25 4.63984 8.25 4.8125V5.4375C8.25 5.61016 8.38984 5.75 8.5625 5.75H15.4375C15.6102 5.75 15.75 5.61016 15.75 5.4375V4.8125C15.75 4.63984 15.6102 4.5 15.4375 4.5H8.5625ZM6.375 17C5.68477 17 5.125 16.4402 5.125 15.75C5.125 15.0598 5.68477 14.5 6.375 14.5C7.06523 14.5 7.625 15.0598 7.625 15.75C7.625 16.4402 7.06523 17 6.375 17ZM7.625 12H11.375V7H7.625C6.93477 7 6.375 7.55977 6.375 8.25V10.75C6.375 11.4402 6.93477 12 7.625 12ZM12.625 12V7H16.375C17.0652 7 17.625 7.55977 17.625 8.25V10.75C17.625 11.4402 17.0652 12 16.375 12H12.625ZM16.375 15.75C16.375 16.4402 16.9348 17 17.625 17C18.3152 17 18.875 16.4402 18.875 15.75C18.875 15.0598 18.3152 14.5 17.625 14.5C16.9348 14.5 16.375 15.0598 16.375 15.75Z" fill="#6F6F6F"/>
</svg>
